packages/dnb-eufemia/assets/icons/globe_medium.svg

<svg width="24" height="24" viewBox="0 0 24 24" fill="none" xmlns="http://www.w3.org/2000/svg">
<path d="M0.975041 9.75C0.827468 10.477 0.75 11.2295 0.75 12C0.75 15.5671 2.41016 18.7464 4.99998 20.8075M0.975041 9.75C2.0174 4.61496 6.55734 0.75 12 0.75C15.6806 0.75 18.9484 2.51749 21.0008 5.25M0.975041 9.75H6.329C7.00903 9.75007 7.61898 10.2263 7.784 10.886L8.534 13.886C8.76668 14.8162 8.03783 15.7499 7.079 15.75H6L4.99998 20.8075M4.99998 20.8075C6.92114 22.3364 9.35388 23.25 12 23.25C16.3159 23.25 20.0641 20.8197 21.9508 17.253M21.0008 5.25C22.4131 7.13024 23.25 9.46739 23.25 12C23.25 13.8973 22.7803 15.685 21.9508 17.253M21.0008 5.25H16.921C16.241 5.25007 15.631 5.7263 15.466 6.386L14.716 9.386C14.4833 10.3162 15.2122 11.2499 16.171 11.25H17.75L18.541 16C18.6602 16.7143 19.2969 17.2532 20.021 17.253H21.9508" stroke="black" stroke-width="1.5" stroke-linecap="round" stroke-linejoin="round"/>
</svg>

<svg width="24" height="24" viewBox="0 0 24 24" fill="none" xmlns="http://www.w3.org/2000/svg"><path d="M.975 9.75C.827 10.477.75 11.23.75 12A11.23 11.23 0 0 0 5 20.808M.975 9.75C2.017 4.615 6.557.75 12 .75a11.23 11.23 0 0 1 9 4.5M.976 9.75H6.33c.68 0 1.29.476 1.455 1.136l.75 3c.233.93-.496 1.864-1.455 1.864H6l-1 5.058m0 0a11.203 11.203 0 0 0 7 2.442c4.316 0 8.064-2.43 9.95-5.997M21 5.25A11.2 11.2 0 0 1 23.25 12a11.2 11.2 0 0 1-1.3 5.253M21 5.25h-4.079c-.68 0-1.29.476-1.455 1.136l-.75 3c-.233.93.496 1.864 1.455 1.864h1.579l.791 4.75c.12.714.756 1.253 1.48 1.253h1.93" stroke="#000" stroke-width="1.5" stroke-linecap="round" stroke-linejoin="round"/></svg>
